Newaita/actions/32/sort-presence.svg

<?xml version="1.0" encoding="UTF-8"?>
<svg xmlns="http://www.w3.org/2000/svg" xmlns:xlink="http://www.w3.org/1999/xlink" width="32pt" height="32pt" viewBox="0 0 32 32" version="1.1">
<g id="surface1">
<path style=" stroke:none;fill-rule:nonzero;fill:rgb(25.882354%,25.882354%,25.882354%);fill-opacity:1;" d="M 8.601562 4.21875 L 28.445312 4.21875 C 28.8125 4.21875 29.105469 4.515625 29.105469 4.878906 L 29.105469 5.542969 C 29.105469 5.90625 28.8125 6.203125 28.445312 6.203125 L 8.601562 6.203125 C 8.234375 6.203125 7.9375 5.90625 7.9375 5.542969 L 7.9375 4.878906 C 7.9375 4.515625 8.234375 4.21875 8.601562 4.21875 Z M 8.601562 4.21875 "/>
<path style=" stroke:none;fill-rule:nonzero;fill:rgb(25.882354%,25.882354%,25.882354%);fill-opacity:1;" d="M 4.300781 3.558594 C 5.214844 3.558594 5.953125 4.296875 5.953125 5.210938 C 5.953125 6.125 5.214844 6.867188 4.300781 6.867188 C 3.386719 6.867188 2.644531 6.125 2.644531 5.210938 C 2.644531 4.296875 3.386719 3.558594 4.300781 3.558594 Z M 4.300781 3.558594 "/>
<path style=" stroke:none;fill-rule:nonzero;fill:rgb(25.882354%,25.882354%,25.882354%);fill-opacity:1;" d="M 8.601562 11.496094 L 28.445312 11.496094 C 28.8125 11.496094 29.105469 11.792969 29.105469 12.15625 L 29.105469 12.820312 C 29.105469 13.183594 28.8125 13.480469 28.445312 13.480469 L 8.601562 13.480469 C 8.234375 13.480469 7.9375 13.183594 7.9375 12.820312 L 7.9375 12.15625 C 7.9375 11.792969 8.234375 11.496094 8.601562 11.496094 Z M 8.601562 11.496094 "/>
<path style=" stroke:none;fill-rule:nonzero;fill:rgb(25.882354%,25.882354%,25.882354%);fill-opacity:1;" d="M 4.300781 10.835938 C 5.214844 10.835938 5.953125 11.574219 5.953125 12.488281 C 5.953125 13.402344 5.214844 14.140625 4.300781 14.140625 C 3.386719 14.140625 2.644531 13.402344 2.644531 12.488281 C 2.644531 11.574219 3.386719 10.835938 4.300781 10.835938 Z M 4.300781 10.835938 "/>
<path style=" stroke:none;fill-rule:nonzero;fill:rgb(25.882354%,25.882354%,25.882354%);fill-opacity:1;" d="M 8.601562 26.050781 L 28.445312 26.050781 C 28.8125 26.050781 29.105469 26.34375 29.105469 26.710938 L 29.105469 27.371094 C 29.105469 27.738281 28.8125 28.035156 28.445312 28.035156 L 8.601562 28.035156 C 8.234375 28.035156 7.9375 27.738281 7.9375 27.371094 L 7.9375 26.710938 C 7.9375 26.34375 8.234375 26.050781 8.601562 26.050781 Z M 8.601562 26.050781 "/>
<path style=" stroke:none;fill-rule:nonzero;fill:rgb(14.901961%,65.098041%,60.392159%);fill-opacity:1;" d="M 4.300781 25.386719 C 5.214844 25.386719 5.953125 26.128906 5.953125 27.042969 C 5.953125 27.953125 5.214844 28.695312 4.300781 28.695312 C 3.386719 28.695312 2.644531 27.953125 2.644531 27.042969 C 2.644531 26.128906 3.386719 25.386719 4.300781 25.386719 Z M 4.300781 25.386719 "/>
<path style=" stroke:none;fill-rule:nonzero;fill:rgb(25.882354%,25.882354%,25.882354%);fill-opacity:1;" d="M 8.601562 18.773438 L 28.445312 18.773438 C 28.8125 18.773438 29.105469 19.070312 29.105469 19.433594 L 29.105469 20.09375 C 29.105469 20.460938 28.8125 20.757812 28.445312 20.757812 L 8.601562 20.757812 C 8.234375 20.757812 7.9375 20.460938 7.9375 20.09375 L 7.9375 19.433594 C 7.9375 19.070312 8.234375 18.773438 8.601562 18.773438 Z M 8.601562 18.773438 "/>
<path style=" stroke:none;fill-rule:nonzero;fill:rgb(93.725491%,32.549021%,31.37255%);fill-opacity:1;" d="M 4.300781 18.109375 C 5.214844 18.109375 5.953125 18.851562 5.953125 19.765625 C 5.953125 20.679688 5.214844 21.417969 4.300781 21.417969 C 3.386719 21.417969 2.644531 20.679688 2.644531 19.765625 C 2.644531 18.851562 3.386719 18.109375 4.300781 18.109375 Z M 4.300781 18.109375 "/>
</g>
</svg>

<svg xmlns="http://www.w3.org/2000/svg" width="32pt" height="32pt" viewBox="0 0 32 32"><path d="M8.602 4.219h19.843a.66.66 0 0 1 .66.66v.664a.66.66 0 0 1-.66.66H8.602a.663.663 0 0 1-.665-.66v-.664c0-.363.297-.66.665-.66zm0 0M4.3 3.559A1.654 1.654 0 1 1 2.645 5.21c0-.914.743-1.652 1.657-1.652zm0 0M8.602 11.496h19.843a.66.66 0 0 1 .66.66v.664a.66.66 0 0 1-.66.66H8.602a.663.663 0 0 1-.665-.66v-.664c0-.363.297-.66.665-.66zm0 0M4.3 10.836a1.65 1.65 0 0 1 1.653 1.652 1.654 1.654 0 1 1-3.309 0c0-.914.743-1.652 1.657-1.652zm0 0M8.602 26.05h19.843c.367 0 .66.294.66.66v.661a.66.66 0 0 1-.66.664H8.602a.664.664 0 0 1-.665-.664v-.66a.66.66 0 0 1 .665-.66zm0 0" fill="#424242"/><path d="M4.3 25.387a1.654 1.654 0 1 1-.002 3.307 1.654 1.654 0 0 1 .003-3.307zm0 0" fill="#26a69a"/><path d="M8.602 18.773h19.843a.66.66 0 0 1 .66.66v.66a.66.66 0 0 1-.66.665H8.602a.664.664 0 0 1-.665-.664v-.66c0-.364.297-.66.665-.66zm0 0" fill="#424242"/><path d="M4.3 18.11a1.654 1.654 0 1 1-.002 3.307 1.654 1.654 0 0 1 .003-3.308zm0 0" fill="#ef5350"/></svg>
